X: 98
%
U:~=!turn!
T: Cha'n fhaod Callum caruchadh
T: Malcolm Dare not Move
C:Skye Set
C:Arranged by K.N. Macdonald
O:Scotland
B:Keith Norman MacDonald : "The Skye collection of the best reels & strathspeys extant" : 1887
Z:Ralph Palmer
R:Reel
M:C
L:1/8
K:A mixolydian
A !segno!| (B/c/d) AG F2 AA | B/c/d AF E2 E2 | B/c/d AG F2 AA | {/d}efed B2 B :|
d | ABde feef | d2 A/A/A dAAB | AB de fedf | efed B2 A !segno!:|


